images/branding/svg/the-door-2.svg

<svg xmlns="http://www.w3.org/2000/svg" viewBox="-179 1 792 612" enable-background="new -179 1 792 612"><style type="text/css">.st0{fill:#EFD30A;} .st1{fill:none;stroke:#EFD30A;stroke-width:2;stroke-miterlimit:10;} .st2{fill:#5B5B5A;} .st3{font-family:&apos;Helvetica-Light&apos;;} .st4{font-size:177.9441px;} .st5{font-size:266.082px;} .st6{fill:#D4D82A;} .st7{fill:#00803D;} .st8{fill:#39933B;} .st9{fill:#78A02E;} .st10{fill:#BDC927;} .st11{fill:#8CD8F6;} .st12{opacity:0.75;fill:#FFFFFF;enable-background:new ;} .st13{font-size:48.3786px;} .st14{fill:#025B2A;}</style><g id="Layer_2"><path class="st0" d="M-119.1 261.9s-34.9-6.1-42.5-71.6c-.1.2 53 30.6 42.5 71.6zM-120.5 319.9s-34.9-6.1-42.5-71.6c-.1.1 53 30.4 42.5 71.6zM-114.8 374.5s-35.3-3.5-47.8-68.1c0 0 55.1 26.3 47.8 68.1zM-112 263.6s35.3-2.8 49.1-67.3c-.1 0-55.8 25.3-49.1 67.3zM-111.8 319.9s34.9-6.1 42.5-71.6c.1.1-53 30.4-42.5 71.6zM-108 372.7s34.8-7.2 40.2-72.8c0-.2-52.2 31.9-40.2 72.8z"/><path class="st1" d="M-111.8 204.9s-26.4 222.4 43.9 237.7"/><path class="st0" d="M-113.6 200.5s6.5-48.7 96.8-62.6c0-.1-39.2 74.9-96.8 62.6z"/><text transform="translate(-63.007 374.51)" class="st2 st3 st4">he</text><text transform="translate(535.298 369.139)" class="st2 st3 st4">r</text><text transform="matrix(.862 0 0 1 177.495 374.51)" class="st2 st3 st5">D</text><path class="st6" d="M391.1 395.9c.6 1.1 2.2 1.1 2.9 0 5.4-9.3 22.1-41.4-3.5-40.6-19.6.9-4.4 31.4.6 40.6z"/><path class="st7" d="M347.8 315.3c-.7.4-1.4 0-1.5-.8-.3-11.1-.1-74.2 34.6-52.7 26.6 16.5-23.9 48.1-33.1 53.5z"/><path class="st8" d="M390.4 341.4c.4.7 1.4.7 1.8 0 5.1-8.5 28.6-50.9-3.3-49.8-24.4 1-3.1 41.5 1.5 49.8z"/><path class="st9" d="M361.6 344.1c-.4.6-1.3.4-1.5-.3-2.6-7.4-13.2-41.1 9.7-35.6 17.7 4-3.3 30-8.2 35.9z"/><path class="st10" d="M372 370.9c-.4.6-1.3.3-1.5-.3-2.5-7.5-12.8-41.3 10.1-35.6 17.6 4.5-3.6 30.2-8.6 35.9z"/><path class="st7" d="M434.4 311.7c.7.3 1.4-.1 1.4-.8-.4-11.1-4.3-74.1-37.5-50.6-25.6 18 26.5 46.5 36.1 51.4z"/><path class="st9" d="M422.6 342.7c.4.6 1.3.4 1.5-.3 2.6-7.4 13.2-41.1-9.7-35.6-17.6 4.2 3.4 30 8.2 35.9z"/><path class="st10" d="M412.2 369.5c.4.6 1.3.3 1.5-.3 2.5-7.5 12.8-41.3-10.1-35.6-17.5 4.5 3.6 30.2 8.6 35.9z"/><path class="st6" d="M490.9 392.3c.6 1.1 2.2 1.1 2.9 0 5.4-9.3 22.1-41.4-3.5-40.6-19.4.9-4.3 31.6.6 40.6z"/><path class="st7" d="M447.6 311.8c-.7.4-1.4 0-1.5-.8-.3-11.1-.1-74.2 34.6-52.7 26.6 16.4-23.7 48-33.1 53.5z"/><path class="st8" d="M490.3 338c.4.7 1.4.7 1.8 0 5.1-8.5 28.6-50.9-3.3-49.8-24.5.8-3.2 41.3 1.5 49.8z"/><path class="st9" d="M461.4 340.5c-.4.6-1.3.4-1.5-.3-2.6-7.4-13.2-41.1 9.7-35.6 17.7 4.2-3.2 30.2-8.2 35.9z"/><path class="st10" d="M471.8 367.4c-.4.6-1.3.3-1.5-.3-2.5-7.5-12.8-41.3 10.1-35.6 17.7 4.4-3.6 30.1-8.6 35.9z"/><path class="st7" d="M534.4 308.2c.7.3 1.4-.1 1.4-.8-.4-11.1-4.3-74.1-37.5-50.6-25.6 17.9 26.5 46.4 36.1 51.4z"/><path class="st9" d="M522.6 339.1c.4.6 1.3.4 1.5-.3 2.6-7.4 13.2-41.1-9.7-35.6-17.7 4.2 3.2 30.2 8.2 35.9z"/><path class="st10" d="M512.2 366c.4.6 1.3.3 1.5-.3 2.5-7.5 12.8-41.3-10.1-35.6-17.7 4.5 3.5 30.2 8.6 35.9z"/><path class="st11" d="M161.3 332.4c-2.8 0-6-1.3-8.5-2.4-4.7-2.2-7.8-6.8-8.9-12-.6-2.8-1.1-5.6.3-8.1.6-1 1-1.9 1.5-2.6 2.9-3.9 6.8-6.7 10-10.4s5.7-8.5 6-13.3c.6.3 1.3.7 1.7 1.3 5.4 5 10 10.8 13.3 17.5 1.4 2.8 2.6 5.7 3.1 8.8.6 3.1.7 6.4-.6 9.2-.6 1.3-1.3 3.1-2.1 4.2-1.5 2.1-3.6 4.3-5.8 5.6-2.9 1.2-6.8 2.2-10 2.2z"/><path class="st12" d="M148.9 311.8c.4-.7.7-1.3 1.1-1.9l2.4-3.3c.8-1.3 1.8-2.5 2.8-3.6-5 1.4-5.7 2.6-7.5 5-1.1 1.5-1.8 3.1-2.5 4.7-.7 1.7-.6 3.8.3 5.4 1.2-2.3 2.3-4.2 3.4-6.3z"/><text transform="matrix(.862 0 0 1 -54.857 459.394)" class="st3 st13">brewing company</text><path class="st14" d="M387.5 247.6h3.9v16.4h-3.9zM488 244.1h3.9v16.4h-3.9z"/></g></svg>

<?xml version="1.0" encoding="utf-8"?>
<!-- Generator: Adobe Illustrator 19.1.0, SVG Export Plug-In . SVG Version: 6.00 Build 0)  -->
<svg version="1.1" id="Layer_1" xmlns="http://www.w3.org/2000/svg" xmlns:xlink="http://www.w3.org/1999/xlink" x="0px" y="0px"
	 viewBox="-179 1 792 612" style="enable-background:new -179 1 792 612;" xml:space="preserve">
<style type="text/css">
	.st0{fill:#EFD30A;}
	.st1{fill:none;stroke:#EFD30A;stroke-width:2;stroke-miterlimit:10;}
	.st2{fill:#5B5B5A;}
	.st3{font-family:'Helvetica-Light';}
	.st4{font-size:177.9441px;}
	.st5{font-size:266.082px;}
	.st6{fill:#D4D82A;}
	.st7{fill:#00803D;}
	.st8{fill:#39933B;}
	.st9{fill:#78A02E;}
	.st10{fill:#BDC927;}
	.st11{fill:#8CD8F6;}
	.st12{opacity:0.75;fill:#FFFFFF;enable-background:new    ;}
	.st13{font-size:48.3786px;}
	.st14{fill:#025B2A;}
</style>
<g id="Layer_2">
	<g>
		<g>
			<path class="st0" d="M-119.1,261.9c0,0-34.9-6.1-42.5-71.6C-161.7,190.5-108.6,220.9-119.1,261.9z"/>
			<path class="st0" d="M-120.5,319.9c0,0-34.9-6.1-42.5-71.6C-163.1,248.4-110,278.7-120.5,319.9z"/>
			<path class="st0" d="M-114.8,374.5c0,0-35.3-3.5-47.8-68.1C-162.6,306.4-107.5,332.7-114.8,374.5z"/>
			<path class="st0" d="M-112,263.6c0,0,35.3-2.8,49.1-67.3C-63,196.3-118.7,221.6-112,263.6z"/>
			<path class="st0" d="M-111.8,319.9c0,0,34.9-6.1,42.5-71.6C-69.2,248.4-122.3,278.7-111.8,319.9z"/>
			<path class="st0" d="M-108,372.7c0,0,34.8-7.2,40.2-72.8C-67.8,299.7-120,331.8-108,372.7z"/>
		</g>
		<path class="st1" d="M-111.8,204.9c0,0-26.4,222.4,43.9,237.7"/>
		<path class="st0" d="M-113.6,200.5c0,0,6.5-48.7,96.8-62.6C-16.8,137.8-56,212.8-113.6,200.5z"/>
	</g>
	<text transform="matrix(1 0 0 1 -63.0074 374.5098)" class="st2 st3 st4">he</text>
	<text transform="matrix(1 0 0 1 535.2978 369.1387)" class="st2 st3 st4">r</text>
	<text transform="matrix(0.8621 0 0 1 177.4955 374.5098)" class="st2 st3 st5">D</text>
	<g>
		<path class="st6" d="M391.1,395.9c0.6,1.1,2.2,1.1,2.9,0c5.4-9.3,22.1-41.4-3.5-40.6C370.9,356.2,386.1,386.7,391.1,395.9z"/>
		<path class="st7" d="M347.8,315.3c-0.7,0.4-1.4,0-1.5-0.8c-0.3-11.1-0.1-74.2,34.6-52.7C407.5,278.3,357,309.9,347.8,315.3z"/>
		<path class="st8" d="M390.4,341.4c0.4,0.7,1.4,0.7,1.8,0c5.1-8.5,28.6-50.9-3.3-49.8C364.5,292.6,385.8,333.1,390.4,341.4z"/>
		<path class="st9" d="M361.6,344.1c-0.4,0.6-1.3,0.4-1.5-0.3c-2.6-7.4-13.2-41.1,9.7-35.6C387.5,312.2,366.5,338.2,361.6,344.1z"/>
		<path class="st10" d="M372,370.9c-0.4,0.6-1.3,0.3-1.5-0.3c-2.5-7.5-12.8-41.3,10.1-35.6C398.2,339.5,377,365.2,372,370.9z"/>
		<path class="st7" d="M434.4,311.7c0.7,0.3,1.4-0.1,1.4-0.8c-0.4-11.1-4.3-74.1-37.5-50.6C372.7,278.3,424.8,306.8,434.4,311.7z"/>
		<path class="st9" d="M422.6,342.7c0.4,0.6,1.3,0.4,1.5-0.3c2.6-7.4,13.2-41.1-9.7-35.6C396.8,311,417.8,336.8,422.6,342.7z"/>
		<path class="st10" d="M412.2,369.5c0.4,0.6,1.3,0.3,1.5-0.3c2.5-7.5,12.8-41.3-10.1-35.6C386.1,338.1,407.2,363.8,412.2,369.5z"/>
	</g>
	<g>
		<path class="st6" d="M490.9,392.3c0.6,1.1,2.2,1.1,2.9,0c5.4-9.3,22.1-41.4-3.5-40.6C470.9,352.6,486,383.3,490.9,392.3z"/>
		<path class="st7" d="M447.6,311.8c-0.7,0.4-1.4,0-1.5-0.8c-0.3-11.1-0.1-74.2,34.6-52.7C507.3,274.7,457,306.3,447.6,311.8z"/>
		<path class="st8" d="M490.3,338c0.4,0.7,1.4,0.7,1.8,0c5.1-8.5,28.6-50.9-3.3-49.8C464.3,289,485.6,329.5,490.3,338z"/>
		<path class="st9" d="M461.4,340.5c-0.4,0.6-1.3,0.4-1.5-0.3c-2.6-7.4-13.2-41.1,9.7-35.6C487.3,308.8,466.4,334.8,461.4,340.5z"/>
		<path class="st10" d="M471.8,367.4c-0.4,0.6-1.3,0.3-1.5-0.3c-2.5-7.5-12.8-41.3,10.1-35.6C498.1,335.9,476.8,361.6,471.8,367.4z"
			/>
		<path class="st7" d="M534.4,308.2c0.7,0.3,1.4-0.1,1.4-0.8c-0.4-11.1-4.3-74.1-37.5-50.6C472.7,274.7,524.8,303.2,534.4,308.2z"/>
		<path class="st9" d="M522.6,339.1c0.4,0.6,1.3,0.4,1.5-0.3c2.6-7.4,13.2-41.1-9.7-35.6C496.7,307.4,517.6,333.4,522.6,339.1z"/>
		<path class="st10" d="M512.2,366c0.4,0.6,1.3,0.3,1.5-0.3c2.5-7.5,12.8-41.3-10.1-35.6C485.9,334.6,507.1,360.3,512.2,366z"/>
	</g>
	<path class="st11" d="M161.3,332.4c-2.8,0-6-1.3-8.5-2.4c-4.7-2.2-7.8-6.8-8.9-12c-0.6-2.8-1.1-5.6,0.3-8.1c0.6-1,1-1.9,1.5-2.6
		c2.9-3.9,6.8-6.7,10-10.4s5.7-8.5,6-13.3c0.6,0.3,1.3,0.7,1.7,1.3c5.4,5,10,10.8,13.3,17.5c1.4,2.8,2.6,5.7,3.1,8.8
		c0.6,3.1,0.7,6.4-0.6,9.2c-0.6,1.3-1.3,3.1-2.1,4.2c-1.5,2.1-3.6,4.3-5.8,5.6C168.4,331.4,164.5,332.4,161.3,332.4z"/>
	<path class="st12" d="M148.9,311.8c0.4-0.7,0.7-1.3,1.1-1.9c0.7-1.1,1.7-2.2,2.4-3.3c0.8-1.3,1.8-2.5,2.8-3.6c-5,1.4-5.7,2.6-7.5,5
		c-1.1,1.5-1.8,3.1-2.5,4.7c-0.7,1.7-0.6,3.8,0.3,5.4C146.7,315.8,147.8,313.9,148.9,311.8z"/>
	<text transform="matrix(0.8621 0 0 1 -54.857 459.3936)" class="st3 st13">brewing company</text>
	<rect x="387.5" y="247.6" class="st14" width="3.9" height="16.4"/>
	<rect x="488" y="244.1" class="st14" width="3.9" height="16.4"/>
</g>
<g id="Layer_3">
</g>
</svg>
